X:22
T:Sugar in the Gas Tank
R:reel
C: 1977, 2010 L.E. McCullough  
M:4/4
L:1/8
K:Ador
AB|:c~A3 G~A3|c~A3 ~e3d|c~A3 G~A3|AGED E~G3|
c~A3 G~A3|c~A3 ~e3f|~g3a gedB|GABG ~A3B:|
|:c~e3 gedB|~G2BG AGEG|c~e3 ~g3a|gedB ~A3B|
c~e3 cdec|dged B~G3|~g3a gedB|GABG ~A3B:|
<end>
<start>
